!!!OTL: Petrus und Pilatus " Wo gehn wir dann hin wandren ?" sprach Petrus.
!!!ARE: Europa, Mitteleuropa, Lothringen, Metz ( St. Vinzent )
!!!ARD1: Europa%Mitteleuropa%France@Metz ( St. Vinzent ):~
!!!ARL1: 45.93/6.10:~
!!!ARD2: Europa%Mitteleuropa%France@Metz ( St. Vinzent ):~
!!!ARL2: 47.40/3.63:~
!!!ARD3: Europa%Mitteleuropa%France@Metz ( St. Vinzent ):~
!!!ARL3: 49.13/6.16:~
!!!ARD4: Europa%Mitteleuropa%France@Metz ( St. Vinzent ):~
!!!ARL4: 50.06/3.06:~
!!!SCT: D0019A
!!!YEM: Copyright 1995, estate of Helmut Schaffrath.
**kern
*ICvox
*Ivox
*M2/4
*k[b-e-]
*g:
{8d
=1
8g
8ff#
8g
8a
=2
4b-
4ffn}
=3
{4b-
4cc
=4
4dd
8r}
{8dd
=5
8ee-
8dd
8dd
16cc
16cc
=6
4dd
8b-}
{8dd
=7
8cc
8b-
8a
8g
=8
4a
[4d
=9
4d]}
{8g
8g
=10
4f#
4g
=11
4.g}
==
!!!AGN: Kinder - Spiel
!! Variante zu D0019
!!!ONB: ESAC (Essen Associative Code) Database: DVA
!!!AMT: simple duple
!!!AIN: vox
!!!EED: Helmut Schaffrath
!!!EEV: 1.0
*-
